X: 203
T: Tie Your Dog, Sally Gal
B: canberra pickers and fiddlers
B: old time tunes update
B: tunes
M:C|
L:1/8
Q: 1/4=100
K:G
V:1 
g2 ge d2 ed|BAGE AGE2|g2 ge deed|BAG2 [D2A2]e2-|
g2ge d2 ed|BAGE AGE2|g2 ge deed|BAGE [D2A2][D2A2]||
|:cAcA [D2d2]Ad|BAGB AGE2|cAcA dBAd|BAGB A2A2:|
c2ec d2 ed|BAGB AGE2|c2ec d2ed|BAGB A2A2|
cAcA d2 ed|BAGB AG E2|c2 cA c2ed|BAGB A2ef||
% abcbook-tune_id 67a7d9ec89732d56d3cc0f16
% abcbook-tune_composer_id 
% abcbook-link-0 https://www.youtube.com/watch?v=JkoyXg2FI7A
% abcbook-link-title-0 Tie Your Dog, Sally Gal
% abcbook-boost 0
% abcbook-difficulty 0
% abcbook-tags old time tunes
% abcbook-tablature 
% abcbook-transpose 
% abcbook-tuning GDAD
% abcbook-lastupdated 1739070266124
% abcbook-src-url 
% abcbook-soundfonts 
% abcbook-repeats 1


